lib/svgs/tick.svg

<?xml version="1.0" encoding="UTF-8"?>
<svg width="16px" height="16px" viewBox="0 0 16 16" version="1.1" xmlns="http://www.w3.org/2000/svg" xmlns:xlink="http://www.w3.org/1999/xlink">
    <!-- Generator: sketchtool 51.3 (57544) - http://www.bohemiancoding.com/sketch -->
    <title>app/tick</title>
    <desc>Created with sketchtool.</desc>
    <defs></defs>
    <g id="Icons" stroke="none" stroke-width="1" fill="none" fill-rule="evenodd">
        <g id="Web" transform="translate(-531.000000, -504.000000)" fill="#000000">
            <g id="app/tick" transform="translate(531.000000, 504.000000)">
                <path d="M5.98952441,13.035 C5.83052441,13.035 5.67752441,12.9697368 5.56552441,12.8497368 L1.07552441,8.12342105 C0.841524414,7.87710526 0.841524414,7.47710526 1.07552441,7.23078947 C1.31052441,6.98447368 1.69052441,6.98447368 1.92452441,7.23078947 L5.98952441,11.5107895 L13.8985244,3.18552632 C14.1335244,2.93815789 14.5125244,2.93815789 14.7475244,3.18552632 C14.9815244,3.43184211 14.9815244,3.83184211 14.7475244,4.07815789 L6.41352441,12.8497368 C6.30152441,12.9697368 6.14852441,13.035 5.98952441,13.035" id="Shape"></path>
            </g>
        </g>
    </g>
</svg>

<svg xmlns="http://www.w3.org/2000/svg" viewBox="0 0 16 16">
    <path d="M5.99 13.035a.578.578 0 0 1-.424-.185l-4.49-4.727a.655.655 0 0 1 0-.892.58.58 0 0 1 .849 0l4.065 4.28 7.909-8.325a.578.578 0 0 1 .849 0 .655.655 0 0 1 0 .892L6.414 12.85a.578.578 0 0 1-.424.185"/>
</svg>
